src/icons/0123_personnelPerson_a.svg

<svg data-name="Layer 1" xmlns="http://www.w3.org/2000/svg" viewBox="0 0 48 48"><path d="M18.5 0a8.9 8.9 0 11-8.9 8.9A8.92 8.92 0 0118.5 0zm-5.6 29.2a1.6 1.6 0 11-1.6 1.6 1.58 1.58 0 011.6-1.6zM31 35.4a7.8 7.8 0 01-2.7-5.8 7.54 7.54 0 012-5.1 13.22 13.22 0 00-5.6-3.6v4.6a2.23 2.23 0 001 1.6 1.61 1.61 0 01.6 1.4v4.7a.8.8 0 01-1.6 0v-5.5h-1.6v5.5a.8.8 0 11-1.6 0v-4.8a2.16 2.16 0 01.6-1.4 2.23 2.23 0 001-1.6v-5a10.9 10.9 0 00-2.6-.3h-4.4a11.53 11.53 0 00-2.6.3v7.3a3.2 3.2 0 11-1.6 0v-6.9A13.5 13.5 0 003 33.5V38h24.1a11.6 11.6 0 013.9-2.6zM36 24a5.6 5.6 0 11-5.6 5.6A5.59 5.59 0 0136 24zm9.8 24v-2.8a8.45 8.45 0 00-8.4-8.4h-2.7a8.45 8.45 0 00-8.4 8.4V48z"/></svg>

<svg id="Layer_1" data-name="Layer 1" xmlns="http://www.w3.org/2000/svg" viewBox="0 0 48 48"><title>0123_personprovider_a</title><path d="M18.5,0A8.9,8.9,0,1,1,9.6,8.9,8.92,8.92,0,0,1,18.5,0ZM12.9,29.2a1.6,1.6,0,1,1-1.6,1.6A1.58,1.58,0,0,1,12.9,29.2ZM31,35.4a7.8,7.8,0,0,1-2.7-5.8,7.54,7.54,0,0,1,2-5.1,13.22,13.22,0,0,0-5.6-3.6v4.6a2.23,2.23,0,0,0,1,1.6,1.61,1.61,0,0,1,.6,1.4v4.7a.8.8,0,0,1-1.6,0V27.7H23.1v5.5a.8.8,0,1,1-1.6,0V28.4a2.16,2.16,0,0,1,.6-1.4,2.23,2.23,0,0,0,1-1.6v-5a10.9,10.9,0,0,0-2.6-.3H16.1a11.53,11.53,0,0,0-2.6.3v7.3a3.2,3.2,0,1,1-1.6,0V20.8A13.5,13.5,0,0,0,3,33.5V38H27.1A11.6,11.6,0,0,1,31,35.4ZM36,24a5.6,5.6,0,1,1-5.6,5.6A5.59,5.59,0,0,1,36,24Zm9.8,24V45.2a8.45,8.45,0,0,0-8.4-8.4H34.7a8.45,8.45,0,0,0-8.4,8.4V48Z"/></svg>
